X:49
T:Sally Brown (b)
M:4/4
L:1/8
Q:1/4=120
K:Bb
B,|\
_D2F2 B2cc|^ddc2 (BA)F2|B4 c3B|(dB)(cA) B2cc|
d3c B2FG|_AA(BA) FDB,2|
M:2/4
L:1/8
B,_D|\
F2F2 F_GFE|C_D3 B,3||
